packages/core/assets/Icons/arrow_circle_chevron_right_outlined.svg

<svg viewBox="0 0 20 20" fill="none" xmlns="http://www.w3.org/2000/svg">
<path d="M10.5625 10L8.58335 11.9792C8.43058 12.132 8.35419 12.323 8.35419 12.5521C8.35419 12.7813 8.43058 12.9792 8.58335 13.1459C8.75002 13.3125 8.94794 13.3959 9.1771 13.3959C9.40627 13.3959 9.60419 13.3125 9.77085 13.1459L12.3334 10.5834C12.5 10.4167 12.5834 10.2223 12.5834 10C12.5834 9.77782 12.5 9.58337 12.3334 9.41671L9.75002 6.83337C9.58335 6.66671 9.38891 6.58685 9.16669 6.59379C8.94446 6.60074 8.75002 6.68754 8.58335 6.85421C8.43057 7.02087 8.35071 7.21532 8.34377 7.43754C8.33682 7.65976 8.41669 7.85421 8.58335 8.02087L10.5625 10ZM18.3334 10C18.3334 11.1528 18.1146 12.2362 17.6771 13.25C17.2396 14.2639 16.6459 15.1459 15.8959 15.8959C15.1459 16.6459 14.2639 17.2396 13.25 17.6771C12.2361 18.1146 11.1528 18.3334 10 18.3334C8.84724 18.3334 7.76391 18.1146 6.75002 17.6771C5.73613 17.2396 4.85419 16.6459 4.10419 15.8959C3.35419 15.1459 2.76044 14.2639 2.32294 13.25C1.88544 12.2362 1.66669 11.1528 1.66669 10C1.66669 8.84726 1.88544 7.76393 2.32294 6.75004C2.76044 5.73615 3.35419 4.85421 4.10419 4.10421C4.85419 3.35421 5.73613 2.76046 6.75002 2.32296C7.76391 1.88546 8.84724 1.66671 10 1.66671C11.1528 1.66671 12.2361 1.88546 13.25 2.32296C14.2639 2.76046 15.1459 3.35421 15.8959 4.10421C16.6459 4.85421 17.2396 5.73615 17.6771 6.75004C18.1146 7.76393 18.3334 8.84726 18.3334 10ZM16.6667 10C16.6667 8.13893 16.0209 6.56254 14.7292 5.27087C13.4375 3.97921 11.8611 3.33337 10 3.33337C8.13891 3.33337 6.56252 3.97921 5.27085 5.27087C3.97919 6.56254 3.33335 8.13893 3.33335 10C3.33335 11.8612 3.97919 13.4375 5.27085 14.7292C6.56252 16.0209 8.13891 16.6667 10 16.6667C11.8611 16.6667 13.4375 16.0209 14.7292 14.7292C16.0209 13.4375 16.6667 11.8612 16.6667 10Z" fill="currentColor"/>
</svg>

<svg xmlns="http://www.w3.org/2000/svg" width="20" height="20" fill="none" viewBox="0 0 20 20">
  <path fill="#201F1F" d="m10.563 10-1.98 1.98a.777.777 0 0 0-.229.572c0 .23.077.427.23.594.166.166.364.25.593.25.23 0 .427-.084.594-.25l2.562-2.563a.8.8 0 0 0 .25-.583.8.8 0 0 0-.25-.583L9.75 6.833a.763.763 0 0 0-.583-.24.839.839 0 0 0-.584.261.879.879 0 0 0-.24.584.763.763 0 0 0 .24.583L10.563 10Zm7.77 0a8.114 8.114 0 0 1-.656 3.25 8.416 8.416 0 0 1-1.781 2.646 8.416 8.416 0 0 1-2.646 1.781 8.115 8.115 0 0 1-3.25.656 8.115 8.115 0 0 1-3.25-.656 8.415 8.415 0 0 1-2.646-1.781 8.416 8.416 0 0 1-1.781-2.646A8.114 8.114 0 0 1 1.667 10c0-1.153.218-2.236.656-3.25a8.415 8.415 0 0 1 1.781-2.646A8.415 8.415 0 0 1 6.75 2.323 8.115 8.115 0 0 1 10 1.667c1.153 0 2.236.218 3.25.656a8.416 8.416 0 0 1 2.646 1.781 8.415 8.415 0 0 1 1.781 2.646 8.115 8.115 0 0 1 .656 3.25Zm-1.666 0c0-1.861-.646-3.437-1.938-4.73C13.438 3.98 11.861 3.334 10 3.334c-1.861 0-3.437.646-4.73 1.938C3.98 6.563 3.334 8.139 3.334 10c0 1.861.646 3.438 1.938 4.73 1.292 1.29 2.868 1.937 4.729 1.937 1.861 0 3.438-.646 4.73-1.938 1.29-1.291 1.937-2.868 1.937-4.729Z"/>
</svg>
